X:593
T: ES KAM EIN MANN AUS NINNEVEH
N: E1904
O: Europa, Mitteleuropa, Deutschland, Sachsen, Dresden
R: Kinder - Lied, Tanz, Spiel, Brautwerbung
M: 2/4
L: 1/8
K: G
D | GGGB | GGDz | GBGz |
AGFE | DBB
D | GGGB | GGDz | GBGz |
AGFE | DBB

@@@ Tune index: 5277
